icons/svg/cursor-text.svg

﻿<?xml version="1.0" encoding="utf-8"?>
<!DOCTYPE svg PUBLIC "-//W3C//DTD SVG 1.1//EN" "http://www.w3.org/Graphics/SVG/1.1/DTD/svg11.dtd">
<svg xmlns="http://www.w3.org/2000/svg" xmlns:xlink="http://www.w3.org/1999/xlink" version="1.1" baseProfile="full" width="24" height="24" viewBox="0 0 24.00 24.00" enable-background="new 0 0 24.00 24.00" xml:space="preserve">
	<path fill="#000000" fill-opacity="1" stroke-width="0.2" stroke-linejoin="round" d="M 13,19C 13,19.5523 13.4477,20 14,20L 16,20L 16,22L 13.5,22C 12.9477,22 12,21.5523 12,21C 12,21.5523 11.0523,22 10.5,22L 8,22L 8,20L 10,20C 10.5523,20 11,19.5523 11,19L 11,4.99999C 11,4.44771 10.5523,3.99999 10,3.99999L 8,4L 8,2.00001L 10.5,2.00001C 11.0523,2.00001 12,2.44772 12,3C 12,2.44772 12.9477,2.00001 13.5,2.00001L 16,2.00001L 16,4L 14,3.99999C 13.4477,3.99999 13,4.44771 13,4.99999L 13,19 Z "/>
</svg>

<svg xmlns="http://www.w3.org/2000/svg" version="1.1" baseProfile="full" width="24" height="24" viewBox="0 0 24.00 24.00" xml:space="preserve"><path fill="#000" fill-opacity="1" stroke-width=".2" stroke-linejoin="round" d="M13 19c0 .552.448 1 1 1h2v2h-2.5c-.552 0-1.5-.448-1.5-1 0 .552-.948 1-1.5 1H8v-2h2c.552 0 1-.448 1-1V5c0-.552-.448-1-1-1H8V2h2.5c.552 0 1.5.448 1.5 1 0-.552.948-1 1.5-1H16v2h-2c-.552 0-1 .448-1 1v14z"/></svg>
